data/images/knob_meter.svg

<?xml version="1.0" encoding="UTF-8"?>
<svg width="100" height="100" fill="none" version="1.1" viewBox="0 0 100 100" xmlns="http://www.w3.org/2000/svg">
 <path d="m61.964 10.407-1.2941 4.8296" stroke="#2d343f" stroke-linecap="round"/>
 <g stroke="#2e3441" stroke-linecap="round" stroke-opacity=".57547">
  <path d="m72.28 14.78-2.5 4.3301"/>
  <path d="m80.315 20.78-3.5355 3.5355"/>
  <path d="m86.11 29.78-4.3301 2.5"/>
  <path d="m90.61 39.78-4.8296 1.2941"/>
  <path d="m91.78 49.78h-5"/>
  <path d="m90.61 61.074-4.8296-1.2941"/>
  <path d="m87.029 70.92-4.3301-2.5"/>
  <path d="m11.53 70.92 4.3301-2.5"/>
 </g>
 <path d="m18.634 79.562 3.6046-3.4651" stroke="#2d343f" stroke-linecap="round"/>
 <path d="m81.314 79.48-3.7564-3.2999" stroke="#2d343f" stroke-linecap="round"/>
 <g stroke="#2e3441" stroke-linecap="round" stroke-opacity=".57547">
  <path d="m7.4066 60.964 4.8296-1.2941"/>
  <path d="m6 50.28h5"/>
  <path d="m7.7799 39.78 4.8296 1.2941"/>
  <path d="m11.78 29.78 4.3301 2.5"/>
  <path d="m18.091 21.091 3.5355 3.5355"/>
  <path d="m26.78 14.78 2.5 4.3301"/>
  <path d="m36.596 10.407 1.2941 4.8296"/>
  <path d="m49.28 8v5"/>
 </g>
</svg>

<svg width="100" height="100" viewBox="0 0 100 100" fill="none" xmlns="http://www.w3.org/2000/svg">
<path d="M61.9639 10.4066L60.6698 15.2362" stroke="#677892" stroke-linecap="round"/>
<path d="M72.2799 14.7799L69.7799 19.11" stroke="#677892" stroke-opacity="0.4" stroke-linecap="round"/>
<path d="M80.3154 20.7799L76.7799 24.3154" stroke="#677892" stroke-opacity="0.4" stroke-linecap="round"/>
<path d="M86.11 29.7799L81.7799 32.2799" stroke="#677892" stroke-opacity="0.4" stroke-linecap="round"/>
<path d="M90.6095 39.7799L85.7799 41.074" stroke="#677892" stroke-opacity="0.4" stroke-linecap="round"/>
<path d="M91.7799 49.7799H86.7799" stroke="#677892" stroke-opacity="0.4" stroke-linecap="round"/>
<path d="M90.6095 61.074L85.7799 59.7799" stroke="#677892" stroke-opacity="0.4" stroke-linecap="round"/>
<path d="M87.0293 70.9198L82.6992 68.4198" stroke="#677892" stroke-opacity="0.4" stroke-linecap="round"/>
<path d="M11.5305 70.9198L15.8606 68.4198" stroke="#677892" stroke-opacity="0.4" stroke-linecap="round"/>
<path d="M18.634 79.5621L22.2386 76.097" stroke="#677892" stroke-linecap="round"/>
<path d="M81.3145 79.4795L77.5581 76.1796" stroke="#677892" stroke-linecap="round"/>
<path d="M7.4066 60.9639L12.2362 59.6698" stroke="#677892" stroke-opacity="0.4" stroke-linecap="round"/>
<path d="M6 50.2799H11" stroke="#677892" stroke-opacity="0.4" stroke-linecap="round"/>
<path d="M7.7799 39.7799L12.6095 41.074" stroke="#677892" stroke-opacity="0.4" stroke-linecap="round"/>
<path d="M11.7799 29.7799L16.11 32.2799" stroke="#677892" stroke-opacity="0.4" stroke-linecap="round"/>
<path d="M18.0906 21.0906L21.6261 24.6261" stroke="#677892" stroke-opacity="0.4" stroke-linecap="round"/>
<path d="M26.7799 14.7799L29.2799 19.11" stroke="#677892" stroke-opacity="0.4" stroke-linecap="round"/>
<path d="M36.5959 10.4066L37.89 15.2362" stroke="#677892" stroke-opacity="0.4" stroke-linecap="round"/>
<path d="M49.2799 8V13" stroke="#677892" stroke-opacity="0.4" stroke-linecap="round"/>
</svg>
